img/тело человека.svg

<?xml version="1.0" encoding="UTF-8" standalone="no"?>
<svg
   xmlns:dc="http://purl.org/dc/elements/1.1/"
   xmlns:cc="http://creativecommons.org/ns#"
   xmlns:rdf="http://www.w3.org/1999/02/22-rdf-syntax-ns#"
   xmlns:svg="http://www.w3.org/2000/svg"
   xmlns="http://www.w3.org/2000/svg"
   xmlns:sodipodi="http://sodipodi.sourceforge.net/DTD/sodipodi-0.dtd"
   xmlns:inkscape="http://www.inkscape.org/namespaces/inkscape"
   width="279"
   height="570"
   viewBox="0 0 279 570"
   fill="none"
   version="1.1"
   id="svg124"
   sodipodi:docname="тело человека.svg"
   inkscape:version="1.0.2-2 (e86c870879, 2021-01-15)">
  <metadata
     id="metadata130">
    <rdf:RDF>
      <cc:Work
         rdf:about="">
        <dc:format>image/svg+xml</dc:format>
        <dc:type
           rdf:resource="http://purl.org/dc/dcmitype/StillImage" />
      </cc:Work>
    </rdf:RDF>
  </metadata>
  <defs
     id="defs128" />
  <sodipodi:namedview
     pagecolor="#ffffff"
     bordercolor="#666666"
     borderopacity="1"
     objecttolerance="10"
     gridtolerance="10"
     guidetolerance="10"
     inkscape:pageopacity="0"
     inkscape:pageshadow="2"
     inkscape:window-width="1920"
     inkscape:window-height="1003"
     id="namedview126"
     showgrid="false"
     inkscape:snap-center="true"
     inkscape:zoom="2.0642556"
     inkscape:cx="37.639754"
     inkscape:cy="151.006"
     inkscape:window-x="-9"
     inkscape:window-y="-9"
     inkscape:window-maximized="1"
     inkscape:current-layer="layer3" />
  <g
     inkscape:groupmode="layer"
     id="layer1"
     inkscape:label="тело"
     style="display:inline;mix-blend-mode:normal">
    <g
       style="fill:none"
       id="g182"
       transform="translate(0.94471385,0.25142623)">
      <path
         d="M 154.795,3.86887 C 149.288,0.909549 139.223,0.150146 139.223,0.150146 V 304.156 l 35.096,107.145 12.318,57.408 9.762,44.16 1.859,16.966 -6.043,10.227 6.043,8.367 -3.951,20.918 h 47.181 L 216.619,529.835 V 416.647 L 214.527,397.588 212.9,351.104 200.815,306.48 186.637,264.877 v -12.784 l -2.092,-18.361 12.318,-46.484 18.826,36.025 16.502,38.35 5.346,25.101 -4.881,9.776 L 234,308 232.656,321.82 221.5,333.5 252,346 l 8.5,-15.5 1,-22.5 11,12.5 6,-1.5 -11,-26 -9.975,-6.276 -1.627,-7.205 -14.642,-57.64 -5.811,-23.242 -2.789,-31.377 -2.324,-16.734 -23.242,-47.879 -18.361,-5.5777 -15.805,-2.0918 -11.621,-4.416 -2.324,-10.9237 4.648,-13.2479 0.698,-3.2539 8.599,-12.7831 V 35.9428 h -3.951 l -0.93,-9.2968 c 0,0 0.113,-8.4632 -2.324,-13.0155 -2.699,-5.04409 -5.884,-7.05373 -10.924,-9.76163 z"
         fill="#fbe1d4"
         id="path168" />
      <path
         d="m 123.884,3.63645 c 5.433,-2.867174 15.339,-3.486304 15.339,-3.486304 V 304.156 l -34.863,106.913 -12.318,57.408 -9.7616,44.159 -1.8594,16.967 6.043,10.227 -6.043,8.367 3.9512,20.917 H 37.1909 L 62.0598,529.603 V 416.414 l 2.0918,-19.058 1.627,-46.484 12.0858,-44.625 14.1776,-41.603 V 251.861 L 94.1338,233.5 81.8156,187.016 62.9895,223.041 46.4877,261.39 41.142,286.492 46.4877,296.5 45,309 l 1.4877,13.5 8.9894,9.413 L 25.5,345.5 l -7,-15 -2.5,-20 -11,11.087 -4.5,-3.087 11.5,-25 9.1539,-7.008 1.627,-7.205 14.6424,-57.641 5.8105,-23.242 2.7891,-31.376 2.3242,-16.734 23.242,-47.879 18.3611,-5.5781 15.8048,-2.0918 11.621,-4.416 2.324,-10.9237 -4.648,-13.248 -0.698,-3.2538 -8.599,-12.7831 V 35.7104 h 3.951 l 0.93,-9.2968 c 0,0 -0.113,-8.4632 2.324,-13.0155 2.7,-5.0441 5.864,-7.09152 10.924,-9.76165 z"
         fill="#fbe1d4"
         id="path170" />
    </g>
  </g>
  <g
     inkscape:groupmode="layer"
     id="layer3"
     inkscape:label="грудные">
    <g
       style="fill:none"
       id="g264"
       transform="translate(142.41223,101.19579)">
      <path
         d="M 6.19609,69.887 C 3.73441,69.3945 2.6069,67.8561 1.31527,65.7034 -1.47374,61.0551 1.54749,25.9597 1.54749,25.9597 c 0,0 1.28516,-10.4347 5.57828,-15.5722 C 11.9789,4.5798 16.7721,4.40726 24.0924,2.48523 30.909,0.695472 35.9457,0.161114 42.9185,0.625829 47.6712,0.942585 51.518,4.34464 53.8422,7.59853 c 2.3242,3.25387 3.0215,3.71847 4.8808,7.90217 1.8594,4.1837 1.8836,7.7289 2.0918,12.7831 0.2785,6.7604 0.2135,10.8378 -2.0918,17.1991 -2.0684,5.7079 -3.9759,8.8249 -8.1347,13.2479 -2.3243,2.4721 -7.918,7.2224 -14.1776,9.5292 -7.009,2.5831 -11.8557,2.0192 -19.5233,2.0919 -4.179,0.0397 -8.36711,0 -10.69131,-0.4649 z"
         fill="#1e8346"
         id="path253" />
    </g>
  </g>
  <g
     inkscape:groupmode="layer"
     id="layer2"
     inkscape:label="трапеция"
     style="display:inline">
    <g
       style="fill:none"
       id="g205"
       transform="translate(88.905742,67.084864)">
      <path
         d="M 28.4461,19.9835 C 31.4435,12.9636 27.5163,0.460205 27.5163,0.460205 c 0,0 7.1491,9.702695 9.0645,16.966695 1.8065,6.8507 0.6973,18.1287 0.6973,18.1287 0,0 -8.5929,-1.8764 -14.1776,-2.5566 -8.834,-1.0758 -22.777189,-0.6973 -22.777189,-0.6973 0,0 23.414589,-1.2913 28.122789,-12.3182 z"
         fill="#1e8346"
         id="path194" />
    </g>
    <g
       style="fill:none"
       id="g240"
       transform="matrix(-1,0,0,1,189.73292,68.463948)">
      <path
         d="m 26.091006,17.700673 c 2.9974,-7.0199 -0.9298,-19.5232948 -0.9298,-19.5232948 0,0 7.1491,9.7026948 9.0645,16.9666948 1.8065,6.8507 0.6973,18.1287 0.6973,18.1287 0,0 -8.5929,-1.8764 -14.1776,-2.5566 -8.834,-1.0758 -22.7771885,-0.6973 -22.7771885,-0.6973 0,0 23.4145885,-1.2913 28.1227885,-12.3182 z"
         fill="#1e8346"
         id="path229" />
    </g>
  </g>
</svg>

<svg width="279" height="570" viewBox="0 0 279 570" fill="none" xmlns="http://www.w3.org/2000/svg">
<path d="M154.795 3.86887C149.288 0.909549 139.223 0.150146 139.223 0.150146V304.156L174.319 411.301L186.637 468.709L196.399 512.869L198.258 529.835L192.215 540.062L198.258 548.429L194.307 569.347H241.488L216.619 529.835V416.647L214.527 397.588L212.9 351.104L200.815 306.48L186.637 264.877V252.093L184.545 233.732L196.863 187.248L215.689 223.273L232.191 261.623L237.537 286.724L232.656 296.5L234 308L232.656 321.82L221.5 333.5L252 346L260.5 330.5L261.5 308L272.5 320.5L278.5 319L267.5 293L257.525 286.724L255.898 279.519L241.256 221.879L235.445 198.637L232.656 167.26L230.332 150.526L207.09 102.647L188.729 97.0693L172.924 94.9775L161.303 90.5615L158.979 79.6378L163.627 66.3899L164.325 63.136L172.924 50.3529V35.9428H168.973L168.043 26.646C168.043 26.646 168.156 18.1828 165.719 13.6305C163.02 8.58641 159.835 6.57677 154.795 3.86887Z" fill="#FBE1D4"/>
<path d="M123.884 3.63645C129.317 0.769276 139.223 0.150146 139.223 0.150146V304.156L104.36 411.069L92.042 468.477L82.2804 512.636L80.421 529.603L86.464 539.83L80.421 548.197L84.3722 569.114H37.1909L62.0598 529.603V416.414L64.1516 397.356L65.7786 350.872L77.8644 306.247L92.042 264.644V251.861L94.1338 233.5L81.8156 187.016L62.9895 223.041L46.4877 261.39L41.142 286.492L46.4877 296.5L45 309L46.4877 322.5L55.4771 331.913L25.5 345.5L18.5 330.5L16 310.5L5 321.587L0.5 318.5L12 293.5L21.1539 286.492L22.7809 279.287L37.4233 221.646L43.2338 198.404L46.0229 167.028L48.3471 150.294L71.5891 102.415L89.9502 96.8369L105.755 94.7451L117.376 90.3291L119.7 79.4054L115.052 66.1574L114.354 62.9036L105.755 50.1205V35.7104H109.706L110.636 26.4136C110.636 26.4136 110.523 17.9504 112.96 13.3981C115.66 8.354 118.824 6.30658 123.884 3.63645Z" fill="#FBE1D4"/>
</svg>
